X: 13355
T: Flax In Bloom, The
R: reel
M: 4/4
K: Dmajor
faaf dfaf|gabg ecAb|affd ABAF|A2ge fdd2|
faaf dfaf|gabg ecAB|AGFG A2df|afeg fdd2|

